icons/dashboard.svg

<svg width="24" height="24" viewBox="0 0 24 24" fill="none" xmlns="http://www.w3.org/2000/svg">
<path fill-rule="evenodd" clip-rule="evenodd" d="M13.2327 1.67448C12.4911 1.11827 11.4645 1.14458 10.7523 1.73803L2.78842 8.3746C2.25609 8.81822 1.99453 9.50081 2.08241 10.18C2.22218 11.2603 2.50002 13.6226 2.50002 15.25C2.50002 16.6203 2.30254 18.5189 2.15518 19.7381C2.01166 20.9255 2.93062 22 4.15112 22H4.16215H4.17322H4.18433H4.19548H4.20668H4.21792H4.2292H4.24052H4.25189H4.2633H4.27475H4.28625H4.29778H4.30936H4.32098H4.33264H4.34435H4.35609H4.36788H4.3797H4.39157H4.40348H4.41543H4.42742H4.43945H4.45152H4.46363H4.47578H4.48797H4.5002H4.51247H4.52477H4.53712H4.54951H4.56193H4.5744H4.5869H4.59945H4.61203H4.62465H4.6373H4.65H4.66273H4.6755H4.68831H4.70116H4.71404H4.72696H4.73992H4.75292H4.76595H4.77902H4.79212H4.80527H4.81844H4.83166H4.84491H4.8582H4.87152H4.88488H4.89827H4.9117H4.92517H4.93867H4.9522H4.96577H4.97937H4.99301H5.00669H5.02039H5.03414H5.04791H5.06172H5.07557H5.08944H5.10335H5.1173H5.13128H5.14529H5.15933H5.17341H5.18752H5.20166H5.21583H5.23004H5.24428H5.25855H5.27285H5.28719H5.30155H5.31595H5.33038H5.34484H5.35933H5.37386H5.38841H5.40299H5.41761H5.43225H5.44693H5.46164H5.47637H5.49114H5.50593H5.52076H5.53561H5.5505H5.56541H5.58035H5.59533H5.61033H5.62535H5.64041H5.6555H5.67061H5.68576H5.70093H5.71612H5.73135H5.74661H5.76189H5.7772H5.79253H5.80789H5.82329H5.8387H5.85415H5.86962H5.88511H5.90064H5.91619H5.93176H5.94736H5.96299H5.97864H5.99432H6.01002H6.02575H6.04151H6.05728H6.07309H6.08892H6.10477H6.12065H6.13655H6.15247H6.16842H6.1844H6.20039H6.21641H6.23246H6.24853H6.26462H6.28073H6.29687H6.31303H6.32921H6.34542H6.36165H6.37789H6.39417H6.41046H6.42678H6.44311H6.45947H6.47585H6.49226H6.50868H6.52512H6.54159H6.55808H6.57458H6.59111H6.60766H6.62423H6.64081H6.65742H6.67405H6.6907H6.70737H6.72405H6.74076H6.75748H6.77423H6.79099H6.80777H6.82457H6.84139H6.85823H6.87509H6.89196H6.90885H6.92576H6.94269H6.95964H6.9766H6.99358H7.01058H7.02759H7.04462H7.06167H7.07874H7.09582H7.11292H7.13003H7.14716H7.16431H7.18147H7.19865H7.21584H7.23305H7.25027H7.26751H7.28476H7.30203H7.31932H7.33662H7.35393H7.37126H7.3886H7.40595H7.42332H7.44071H7.45811H7.47552H7.49294H7.51038H7.52783H7.54529H7.56277H7.58026H7.59776H7.61528H7.6328H7.65034H7.66789H7.68546H7.70303H7.72062H7.73822H7.75583H7.77345H7.79108H7.80872H7.82638H7.84404H7.86172H7.87941H7.8971H7.91481H7.93253H7.95025H7.96799H7.98573H8.00349H8.02126H8.03903H8.05681H8.07461H8.09241H8.11022H8.12804H8.14587H8.1637H8.18155H8.1994H8.21726H8.23513H8.253H8.27088H8.28877H8.30667H8.32458H8.34249H8.36041H8.37833H8.39627H8.4142H8.43215H8.4501H8.46806H8.48602H8.50399H8.52196H8.53994H8.55793H8.57592H8.59392H8.61192H8.62992H8.64793H8.66595H8.68397H8.70199H8.72002H8.73805H8.75609H8.77413H8.79217H8.81022H8.82827H8.84632H8.86438H8.88244H8.9005H8.91857H8.93664H8.95471H8.97278H8.99086H9.00893H9.02701H9.04509H9.06317H9.08126H9.09934H9.11743H9.13552H9.15361H9.1717H9.18979H9.20788H9.22597H9.24406H9.26215H9.28024H9.29834H9.31643H9.33452H9.35261H9.3707H9.38879H9.40688H9.42496H9.44305H9.46113H9.47922H9.4973H9.51538H9.53346H9.55153H9.56961H9.58768H9.60575H9.62382H9.64188H9.65994H9.678H9.69606H9.71411H9.73216H9.75021H9.76825H9.78629H9.80432H9.82235H9.84038H9.8584H9.87642H9.89443H9.91244H9.93044H9.94844H9.96644H9.98443H10.0024H10.0204H10.0384H10.0563H10.0743H10.0922H10.1102H10.1281H10.1461H10.164H10.1819H10.1998H10.2177H10.2357H10.2535H10.2714H10.2893H10.3072H10.3251H10.3429H10.3608H10.3786H10.3964H10.4143H10.4321H10.4499H10.4677H10.4855H10.5032H10.521H10.5388H10.5565H10.5743H10.592H10.6097H10.6274H10.6451H10.6628H10.6805H10.6982H10.7159H10.7335H10.7511H10.7688H10.7864H10.804H10.8216H10.8392H10.8567H10.8743H10.8918H10.9094H10.9269H10.9444H10.9619H10.9794H10.9969H11.0143H11.0318H11.0492H11.0666H11.084H11.1014H11.1188H11.1362H11.1535H11.1709H11.1882H11.2055H11.2228H11.2401H11.2573H11.2746H11.2918H11.309H11.3262H11.3434H11.3606H11.3777H11.3949H11.412H11.4291H11.4462H11.4633H11.4803H11.4974H11.5144H11.5314H11.5484H11.5654H11.5823H11.5993H11.6162H11.6331H11.65H11.6668H11.6837H11.7005H11.7173H11.7341H11.7509H11.7677H11.7844H11.8011H11.8178H11.8345H11.8512H11.8678H11.8844H11.901H11.9176H11.9342H11.9507H11.9672H11.9837H12.0002H12.0167H12.0331H12.0495H12.0659H12.0823H12.0986H12.115H12.1313H12.1475H12.1638H12.1801H12.1963H12.2125H12.2286H12.2448H12.2609H12.277H12.2931H12.3092H12.3252H12.3412H12.3572H12.3732H12.3891H12.405H12.4209H12.4368H12.4526H12.4685H12.4842H12.5H12.5158H12.5316H12.5474H12.5632H12.5791H12.595H12.6109H12.6269H12.6428H12.6588H12.6748H12.6909H12.7069H12.723H12.7391H12.7552H12.7714H12.7876H12.8038H12.82H12.8362H12.8525H12.8688H12.8851H12.9014H12.9178H12.9341H12.9505H12.9669H12.9834H12.9998H13.0163H13.0328H13.0493H13.0659H13.0824H13.099H13.1156H13.1322H13.1489H13.1655H13.1822H13.1989H13.2156H13.2324H13.2491H13.2659H13.2827H13.2995H13.3163H13.3332H13.3501H13.3669H13.3838H13.4008H13.4177H13.4347H13.4516H13.4686H13.4856H13.5027H13.5197H13.5368H13.5538H13.5709H13.588H13.6052H13.6223H13.6395H13.6566H13.6738H13.691H13.7082H13.7255H13.7427H13.76H13.7773H13.7945H13.8119H13.8292H13.8465H13.8639H13.8812H13.8986H13.916H13.9334H13.9508H13.9683H13.9857H14.0032H14.0206H14.0381H14.0556H14.0731H14.0906H14.1082H14.1257H14.1433H14.1609H14.1784H14.196H14.2136H14.2313H14.2489H14.2665H14.2842H14.3018H14.3195H14.3372H14.3549H14.3726H14.3903H14.408H14.4258H14.4435H14.4613H14.479H14.4968H14.5146H14.5324H14.5502H14.568H14.5858H14.6036H14.6214H14.6393H14.6571H14.675H14.6928H14.7107H14.7286H14.7465H14.7644H14.7823H14.8002H14.8181H14.836H14.854H14.8719H14.8898H14.9078H14.9257H14.9437H14.9617H14.9796H14.9976H15.0156H15.0336H15.0516H15.0696H15.0876H15.1056H15.1236H15.1416H15.1597H15.1777H15.1957H15.2137H15.2318H15.2498H15.2679H15.2859H15.304H15.322H15.3401H15.3581H15.3762H15.3943H15.4124H15.4304H15.4485H15.4666H15.4847H15.5027H15.5208H15.5389H15.557H15.5751H15.5932H15.6112H15.6293H15.6474H15.6655H15.6836H15.7017H15.7198H15.7379H15.756H15.7741H15.7922H15.8102H15.8283H15.8464H15.8645H15.8826H15.9007H15.9188H15.9369H15.9549H15.973H15.9911H16.0092H16.0273H16.0453H16.0634H16.0815H16.0995H16.1176H16.1356H16.1537H16.1718H16.1898H16.2079H16.2259H16.2439H16.262H16.28H16.298H16.3161H16.3341H16.3521H16.3701H16.3881H16.4061H16.4241H16.4421H16.4601H16.4781H16.496H16.514H16.532H16.5499H16.5679H16.5858H16.6038H16.6217H16.6396H16.6575H16.6755H16.6934H16.7113H16.7291H16.747H16.7649H16.7828H16.8006H16.8185H16.8363H16.8542H16.872H16.8898H16.9076H16.9254H16.9432H16.961H16.9788H16.9965H17.0143H17.032H17.0498H17.0675H17.0852H17.1029H17.1206H17.1383H17.156H17.1737H17.1913H17.209H17.2266H17.2442H17.2618H17.2794H17.297H17.3146H17.3321H17.3497H17.3672H17.3848H17.4023H17.4198H17.4373H17.4547H17.4722H17.4897H17.5071H17.5245H17.5419H17.5593H17.5767H17.5941H17.6114H17.6288H17.6461H17.6634H17.6807H17.698H17.7153H17.7325H17.7498H17.767H17.7842H17.8014H17.8186H17.8357H17.8529H17.87H17.8871H17.9042H17.9213H17.9384H17.9554H17.9724H17.9895H18.0064H18.0234H18.0404H18.0573H18.0743H18.0912H18.1081H18.1249H18.1418H18.1586H18.1755H18.1923H18.209H18.2258H18.2425H18.2593H18.276H18.2927H18.3093H18.326H18.3426H18.3592H18.3758H18.3924H18.4089H18.4254H18.442H18.4584H18.4749H18.4914H18.5078H18.5242H18.5406H18.5569H18.5733H18.5896H18.6059H18.6221H18.6384H18.6546H18.6708H18.687H18.7032H18.7193H18.7354H18.7515H18.7676H18.7836H18.7996H18.8156H18.8316H18.8476H18.8635H18.8794H18.8953H18.9111H18.9269H18.9427H18.9585H18.9743H18.99H19.0057H19.0214H19.037H19.0527H19.0683H19.0838H19.0994H19.1149H19.1304H19.1459H19.1613H19.1767H19.1921H19.2075H19.2228H19.2381H19.2534H19.2687H19.2839H19.2991H19.3143H19.3294H19.3445H19.3596H19.3747H19.3897H19.4047H19.4197H19.4346H19.4495H19.4644H19.4793H19.4941H19.5089H19.5237H19.5384H19.5531H19.5678H19.5824H19.597H19.6116H19.6262H19.6407H19.6552H19.6696H19.6841H19.6985H19.7128H19.7272H19.7415H19.7558H19.77H19.7842H19.7984H19.8125H19.8266H19.8407H19.8547H19.8688H19.8827H19.8967H19.9106H19.9245H19.9383H19.9521H19.9659H19.9796H19.9933H20.007H20.0207H20.0343H20.0478H20.0614H20.0749H20.0883H20.1018H20.1152H20.1285H20.1418H20.1551H20.1684H20.1816H20.1948H20.2079H20.221H20.2341H20.2471H20.2601H20.2731H20.286H20.2989H20.3117H20.3245H20.3373H20.35H20.3627H20.3754H20.388H20.4006H20.4131H20.4256H20.4381H20.4505H20.4629H20.4753H20.4876H20.4998H20.5121H20.5243H20.5364H20.5485H20.5606H20.5726H20.5846H20.5966H20.6085H20.6203H20.6322H20.6439H20.6557H20.6674H20.679H20.6907H20.7022H20.7138H20.7253H20.7367H20.7481H20.7595H20.7708H20.7821H20.7934H20.8046H20.8157H20.8268H20.8379H20.8489C22.0694 22 22.9884 20.9255 22.8448 19.7381C22.6975 18.5189 22.5 16.6203 22.5 15.25C22.5 13.6403 22.7719 11.311 22.9132 10.2143C23.0052 9.50046 22.711 8.78325 22.1264 8.34479L13.2327 1.67448ZM12.0327 3.27448L20.9264 9.94479C20.9264 9.94479 20.9273 9.94523 20.9283 9.94777C20.9295 9.95053 20.9302 9.95422 20.9296 9.95874C20.7893 11.0474 20.5 13.4954 20.5 15.25C20.5 16.7527 20.7118 18.7575 20.8593 19.9781C20.8597 19.9814 20.8596 19.9835 20.8595 19.9846C20.8594 19.9858 20.8592 19.9869 20.8588 19.988C20.858 19.9906 20.8563 19.9938 20.8537 19.9968C20.8525 19.9982 20.8514 19.9991 20.8507 19.9997L20.8503 20L20.8489 20H20.8379H20.8268H20.8157H20.8046H20.7934H20.7821H20.7708H20.7595H20.7481H20.7367H20.7253H20.7138H20.7022H20.6907H20.679H20.6674H20.6557H20.6439H20.6322H20.6203H20.6085H20.5966H20.5846H20.5726H20.5606H20.5485H20.5364H20.5243H20.5121H20.4998H20.4876H20.4753H20.4629H20.4505H20.4381H20.4256H20.4131H20.4006H20.388H20.3754H20.3627H20.35H20.3373H20.3245H20.3117H20.2989H20.286H20.2731H20.2601H20.2471H20.2341H20.221H20.2079H20.1948H20.1816H20.1684H20.1551H20.1418H20.1285H20.1152H20.1018H20.0883H20.0749H20.0614H20.0478H20.0343H20.0207H20.007H19.9933H19.9796H19.9659H19.9521H19.9383H19.9245H19.9106H19.8967H19.8827H19.8688H19.8547H19.8407H19.8266H19.8125H19.7984H19.7842H19.77H19.7558H19.7415H19.7272H19.7128H19.6985H19.6841H19.6696H19.6552H19.6407H19.6262H19.6116H19.597H19.5824H19.5678H19.5531H19.5384H19.5237H19.5089H19.4941H19.4793H19.4644H19.4495H19.4346H19.4197H19.4047H19.3897H19.3747H19.3596H19.3445H19.3294H19.3143H19.2991H19.2839H19.2687H19.2534H19.2381H19.2228H19.2075H19.1921H19.1767H19.1613H19.1459H19.1304H19.1149H19.0994H19.0838H19.0683H19.0527H19.037H19.0214H19.0057H18.99H18.9743H18.9585H18.9427H18.9269H18.9111H18.8953H18.8794H18.8635H18.8476H18.8316H18.8156H18.7996H18.7836H18.7676H18.7515H18.7354H18.7193H18.7032H18.687H18.6708H18.6546H18.6384H18.6221H18.6059H18.5896H18.5733H18.5569H18.5406H18.5242H18.5078H18.4914H18.4749H18.4584H18.442H18.4254H18.4089H18.3924H18.3758H18.3592H18.3426H18.326H18.3093H18.2927H18.276H18.2593H18.2425H18.2258H18.209H18.1923H18.1755H18.1586H18.1418H18.1249H18.1081H18.0912H18.0743H18.0573H18.0404H18.0234H18.0064H17.9895H17.9724H17.9554H17.9384H17.9213H17.9042H17.8871H17.87H17.8529H17.8357H17.8186H17.8014H17.7842H17.767H17.7498H17.7325H17.7153H17.698H17.6807H17.6634H17.6461H17.6288H17.6114H17.5941H17.5767H17.5593H17.5419H17.5245H17.5071H17.4897H17.4722H17.4547H17.4373H17.4198H17.4023H17.3848H17.3672H17.3497H17.3321H17.3146H17.297H17.2794H17.2618H17.2442H17.2266H17.209H17.1913H17.1737H17.156H17.1383H17.1206H17.1029H17.0852H17.0675H17.0498H17.032H17.0143L17 20V15.5C17 13.0147 14.9853 11 12.5 11C10.0147 11 8.00002 13.0147 8.00002 15.5V20L7.98573 20H7.96799H7.95025H7.93253H7.91481H7.8971H7.87941H7.86172H7.84404H7.82638H7.80872H7.79108H7.77345H7.75583H7.73822H7.72062H7.70303H7.68546H7.66789H7.65034H7.6328H7.61528H7.59776H7.58026H7.56277H7.54529H7.52783H7.51038H7.49294H7.47552H7.45811H7.44071H7.42332H7.40595H7.3886H7.37126H7.35393H7.33662H7.31932H7.30203H7.28476H7.26751H7.25027H7.23305H7.21584H7.19865H7.18147H7.16431H7.14716H7.13003H7.11292H7.09582H7.07874H7.06167H7.04462H7.02759H7.01058H6.99358H6.9766H6.95964H6.94269H6.92576H6.90885H6.89196H6.87509H6.85823H6.84139H6.82457H6.80777H6.79099H6.77423H6.75748H6.74076H6.72405H6.70737H6.6907H6.67405H6.65742H6.64081H6.62423H6.60766H6.59111H6.57458H6.55808H6.54159H6.52512H6.50868H6.49226H6.47585H6.45947H6.44311H6.42678H6.41046H6.39417H6.37789H6.36165H6.34542H6.32921H6.31303H6.29687H6.28073H6.26462H6.24853H6.23246H6.21641H6.20039H6.1844H6.16842H6.15247H6.13655H6.12065H6.10477H6.08892H6.07309H6.05728H6.04151H6.02575H6.01002H5.99432H5.97864H5.96299H5.94736H5.93176H5.91619H5.90064H5.88511H5.86962H5.85415H5.8387H5.82329H5.80789H5.79253H5.7772H5.76189H5.74661H5.73135H5.71612H5.70093H5.68576H5.67061H5.6555H5.64041H5.62535H5.61033H5.59533H5.58035H5.56541H5.5505H5.53561H5.52076H5.50593H5.49114H5.47637H5.46164H5.44693H5.43225H5.41761H5.40299H5.38841H5.37386H5.35933H5.34484H5.33038H5.31595H5.30155H5.28719H5.27285H5.25855H5.24428H5.23004H5.21583H5.20166H5.18752H5.17341H5.15933H5.14529H5.13128H5.1173H5.10335H5.08944H5.07557H5.06172H5.04791H5.03414H5.02039H5.00669H4.99301H4.97937H4.96577H4.9522H4.93867H4.92517H4.9117H4.89827H4.88488H4.87152H4.8582H4.84491H4.83166H4.81844H4.80527H4.79212H4.77902H4.76595H4.75292H4.73992H4.72696H4.71404H4.70116H4.68831H4.6755H4.66273H4.65H4.6373H4.62465H4.61203H4.59945H4.5869H4.5744H4.56193H4.54951H4.53712H4.52477H4.51247H4.5002H4.48797H4.47578H4.46363H4.45152H4.43945H4.42742H4.41543H4.40348H4.39157H4.3797H4.36788H4.35609H4.34435H4.33264H4.32098H4.30936H4.29778H4.28625H4.27475H4.2633H4.25189H4.24052H4.2292H4.21792H4.20668H4.19548H4.18433H4.17322H4.16215H4.15112L4.14974 20C4.14904 19.9995 4.14781 19.9985 4.14632 19.9968C4.1437 19.9938 4.14203 19.9906 4.14123 19.988C4.14087 19.9869 4.14064 19.9858 4.14053 19.9846C4.14042 19.9835 4.14032 19.9814 4.14073 19.9781C4.28826 18.7575 4.50002 16.7527 4.50002 15.25C4.50002 13.4769 4.20453 10.995 4.06588 9.92337C4.06476 9.91475 4.06833 9.91143 4.06879 9.91105L12.0327 3.27448ZM10 20L10.0024 20H10.0204H10.0384H10.0563H10.0743H10.0922H10.1102H10.1281H10.1461H10.164H10.1819H10.1998H10.2177H10.2357H10.2535H10.2714H10.2893H10.3072H10.3251H10.3429H10.3608H10.3786H10.3964H10.4143H10.4321H10.4499H10.4677H10.4855H10.5032H10.521H10.5388H10.5565H10.5743H10.592H10.6097H10.6274H10.6451H10.6628H10.6805H10.6982H10.7159H10.7335H10.7511H10.7688H10.7864H10.804H10.8216H10.8392H10.8567H10.8743H10.8918H10.9094H10.9269H10.9444H10.9619H10.9794H10.9969H11.0143H11.0318H11.0492H11.0666H11.084H11.1014H11.1188H11.1362H11.1535H11.1709H11.1882H11.2055H11.2228H11.2401H11.2573H11.2746H11.2918H11.309H11.3262H11.3434H11.3606H11.3777H11.3949H11.412H11.4291H11.4462H11.4633H11.4803H11.4974H11.5144H11.5314H11.5484H11.5654H11.5823H11.5993H11.6162H11.6331H11.65H11.6668H11.6837H11.7005H11.7173H11.7341H11.7509H11.7677H11.7844H11.8011H11.8178H11.8345H11.8512H11.8678H11.8844H11.901H11.9176H11.9342H11.9507H11.9672H11.9837H12.0002H12.0167H12.0331H12.0495H12.0659H12.0823H12.0986H12.115H12.1313H12.1475H12.1638H12.1801H12.1963H12.2125H12.2286H12.2448H12.2609H12.277H12.2931H12.3092H12.3252H12.3412H12.3572H12.3732H12.3891H12.405H12.4209H12.4368H12.4526H12.4685H12.4842H12.5H12.5158H12.5316H12.5474H12.5632H12.5791H12.595H12.6109H12.6269H12.6428H12.6588H12.6748H12.6909H12.7069H12.723H12.7391H12.7552H12.7714H12.7876H12.8038H12.82H12.8362H12.8525H12.8688H12.8851H12.9014H12.9178H12.9341H12.9505H12.9669H12.9834H12.9998H13.0163H13.0328H13.0493H13.0659H13.0824H13.099H13.1156H13.1322H13.1489H13.1655H13.1822H13.1989H13.2156H13.2324H13.2491H13.2659H13.2827H13.2995H13.3163H13.3332H13.3501H13.3669H13.3838H13.4008H13.4177H13.4347H13.4516H13.4686H13.4856H13.5027H13.5197H13.5368H13.5538H13.5709H13.588H13.6052H13.6223H13.6395H13.6566H13.6738H13.691H13.7082H13.7255H13.7427H13.76H13.7773H13.7945H13.8119H13.8292H13.8465H13.8639H13.8812H13.8986H13.916H13.9334H13.9508H13.9683H13.9857H14.0032H14.0206H14.0381H14.0556H14.0731H14.0906H14.1082H14.1257H14.1433H14.1609H14.1784H14.196H14.2136H14.2313H14.2489H14.2665H14.2842H14.3018H14.3195H14.3372H14.3549H14.3726H14.3903H14.408H14.4258H14.4435H14.4613H14.479H14.4968H14.5146H14.5324H14.5502H14.568H14.5858H14.6036H14.6214H14.6393H14.6571H14.675H14.6928H14.7107H14.7286H14.7465H14.7644H14.7823H14.8002H14.8181H14.836H14.854H14.8719H14.8898H14.9078H14.9257H14.9437H14.9617H14.9796H14.9976L15 20V15.5C15 14.1193 13.8807 13 12.5 13C11.1193 13 10 14.1193 10 15.5V20Z" fill="#333333"/>
</svg>

<svg xmlns="http://www.w3.org/2000/svg" width="24" height="24" fill="none" viewBox="0 0 24 24">
  <path fill="#333" fill-rule="evenodd" d="M13.233 1.674a2 2 0 00-2.48.064L2.787 8.375a2.013 2.013 0 00-.706 1.805c.14 1.08.418 3.443.418 5.07 0 1.37-.197 3.269-.345 4.488A2.016 2.016 0 004.151 22H20.85c1.22 0 2.14-1.075 1.996-2.262-.147-1.22-.345-3.118-.345-4.488 0-1.61.272-3.939.413-5.036a2.014 2.014 0 00-.787-1.87l-8.893-6.67zm-1.2 1.6l8.893 6.67.002.004a.02.02 0 01.002.01c-.14 1.09-.43 3.537-.43 5.292 0 1.503.212 3.508.36 4.728a.03.03 0 010 .007l-.001.003a.025.025 0 01-.005.009L20.85 20H17v-4.5a4.5 4.5 0 10-9 0V20H4.15a.025.025 0 01-.009-.012v-.003a.03.03 0 010-.007c.147-1.22.359-3.225.359-4.728 0-1.773-.295-4.255-.434-5.327-.001-.008.002-.012.003-.012l7.964-6.637zM10 20h5v-4.5a2.5 2.5 0 00-5 0V20z"/>
</svg>
